storage/app/icons/phosphoricons/light/layout-light.svg

<svg xmlns="http://www.w3.org/2000/svg" fill="currentColor" viewBox="0 0 256 256"><path d="M216 42H40a14 14 0 0 0-14 14v144a14 14 0 0 0 14 14h176a14 14 0 0 0 14-14V56a14 14 0 0 0-14-14M40 54h176a2 2 0 0 1 2 2v42H38V56a2 2 0 0 1 2-2m-2 146v-90h60v92H40a2 2 0 0 1-2-2m178 2H110v-92h108v90a2 2 0 0 1-2 2"/></svg>

<svg xmlns="http://www.w3.org/2000/svg" viewBox="0 0 256 256" fill="currentColor"><path d="M216,42H40A14,14,0,0,0,26,56V200a14,14,0,0,0,14,14H216a14,14,0,0,0,14-14V56A14,14,0,0,0,216,42ZM40,54H216a2,2,0,0,1,2,2V98H38V56A2,2,0,0,1,40,54ZM38,200V110H98v92H40A2,2,0,0,1,38,200Zm178,2H110V110H218v90A2,2,0,0,1,216,202Z"/></svg>
